lib/functional/maps&travel/barricade.svg

<svg xmlns="http://www.w3.org/2000/svg" fill="none" stroke="currentColor" aria-hidden="true" viewBox="0 0 32 32"><g id="Icon-Barricade"><g clip-path="url(#clip0_10_2094)"><g id="size=md (32px)"><g id="Barricade"><path id="Vector" stroke-linecap="round" stroke-linejoin="round" stroke-width="2" d="M28 9H4C3.44772 9 3 9.44772 3 10V19C3 19.5523 3.44772 20 4 20H28C28.5523 20 29 19.5523 29 19V10C29 9.44772 28.5523 9 28 9Z"/><path id="Vector_2" stroke-linecap="round" stroke-linejoin="round" stroke-width="2" d="M10.5 9L21.5 20"/><path id="Vector_3" stroke-linecap="round" stroke-linejoin="round" stroke-width="2" d="M19.5 9L29 18.5"/><path id="Vector_4" stroke-linecap="round" stroke-linejoin="round" stroke-width="2" d="M3 10.5L12.5 20"/><path id="Vector_5" stroke-linecap="round" stroke-linejoin="round" stroke-width="2" d="M24 20V25"/><path id="Vector_6" stroke-linecap="round" stroke-linejoin="round" stroke-width="2" d="M8 20V25"/></g></g></g></g><defs><clipPath id="clip0_10_2094"><rect width="32" height="32" fill="white" rx="5"/></clipPath></defs></svg>

<svg xmlns="http://www.w3.org/2000/svg" fill="none" stroke="currentColor" aria-hidden="true" viewBox="0 0 32 32"><g stroke="#101828" stroke-linecap="round" stroke-linejoin="round" stroke-width="2" clip-path="url(#a)"><path d="M28 9H4a1 1 0 0 0-1 1v9a1 1 0 0 0 1 1h24a1 1 0 0 0 1-1v-9a1 1 0 0 0-1-1ZM10.5 9l11 11m-2-11 9.5 9.5m-26-8 9.5 9.5M24 20v5M8 20v5"/></g><defs><clipPath id="a"><rect width="32" height="32" fill="#fff" rx="5"/></clipPath></defs></svg>
